images/LandingPage/Receivables.svg

<?xml version="1.0" encoding="UTF-8"?>
<svg width="204px" height="115px" viewBox="0 0 204 115" version="1.1" xmlns="http://www.w3.org/2000/svg" xmlns:xlink="http://www.w3.org/1999/xlink">
    <title>C55CD092-0AB6-456A-8A10-25C431067340</title>
    <defs>
        <linearGradient x1="50%" y1="80.4921781%" x2="50%" y2="-51.9042969%" id="linearGradient-1">
            <stop stop-color="#56C491" offset="0%"></stop>
            <stop stop-color="#F3FFD4" offset="100%"></stop>
        </linearGradient>
        <linearGradient x1="50%" y1="80.4921781%" x2="50%" y2="-51.9042969%" id="linearGradient-2">
            <stop stop-color="#DCDCDC" offset="0%"></stop>
            <stop stop-color="#F3FFD4" offset="100%"></stop>
        </linearGradient>
        <linearGradient x1="50%" y1="80.4921781%" x2="50%" y2="-51.9042969%" id="linearGradient-3">
            <stop stop-color="#56C491" offset="0%"></stop>
            <stop stop-color="#F3FFD4" offset="100%"></stop>
        </linearGradient>
        <linearGradient x1="50%" y1="80.4921781%" x2="50%" y2="-115.62853%" id="linearGradient-4">
            <stop stop-color="#DEE0DA" offset="0%"></stop>
            <stop stop-color="#DEE0DA" offset="100%"></stop>
        </linearGradient>
        <linearGradient x1="50%" y1="80.4921781%" x2="50%" y2="-115.62853%" id="linearGradient-5">
            <stop stop-color="#DEE0DA" offset="0%"></stop>
            <stop stop-color="#DEE0DA" offset="100%"></stop>
        </linearGradient>
        <linearGradient x1="50%" y1="80.4921781%" x2="50%" y2="-51.9042969%" id="linearGradient-6">
            <stop stop-color="#56C491" offset="0%"></stop>
            <stop stop-color="#F3FFD4" offset="100%"></stop>
        </linearGradient>
        <filter x="-18.5%" y="-933.1%" width="137.0%" height="1966.2%" filterUnits="objectBoundingBox" id="filter-7">
            <feGaussianBlur stdDeviation="4.66560025" in="SourceGraphic"></feGaussianBlur>
        </filter>
    </defs>
    <g id="Page-1" stroke="none" stroke-width="1" fill="none" fill-rule="evenodd">
        <g id="assets-homepage" transform="translate(-954.000000, -354.000000)">
            <g id="icon-ar" transform="translate(954.000000, 354.000000)">
                <rect id="Rectangle-Copy-4" fill-opacity="0" fill="#D8D8D8" x="0" y="0" width="204" height="108"></rect>
                <g id="icon/ar" transform="translate(54.000000, 4.000000)">
                    <path d="M19.2987525,0 L19.298,11.111 L38.305,11.111 L38.3050996,0 L38.5975049,0 L38.597,11.111 L57.603,11.111 L57.603852,0 L57.8962574,0 L57.896,11.111 L76.902,11.111 L76.9026045,0 L77.1950098,0 L77.195,11.111 L96.201357,11.1114029 L96.201357,11.4038083 L77.195,11.403 L77.195,20.76 L96.201357,20.7607792 L96.201357,21.0531845 L77.195,21.053 L77.195,30.41 L96.201357,30.4101554 L96.201357,30.7025607 L77.195,30.702 L77.195,40.059 L96.201357,40.0595316 L96.201357,40.351937 L77.195,40.351 L77.195,49.708 L96.201357,49.7089079 L96.201357,50.0013132 L77.195,50.001 L77.195,59.358 L96.201357,59.3582841 L96.201357,59.6506894 L77.195,59.65 L77.195,69.007 L96.201357,69.0076603 L96.201357,69.3000657 L77.195,69.3 L77.1950098,80.1190633 L76.9026045,80.1190633 L76.902,69.3 L57.896,69.3 L57.8962574,80.1190633 L57.603852,80.1190633 L57.603,69.3 L38.597,69.3 L38.5975049,80.1190633 L38.3050996,80.1190633 L38.305,69.3 L19.298,69.3 L19.2987525,80.1190633 L19.0063471,80.1190633 L19.006,69.3 L0,69.3000657 L0,69.0076603 L19.006,69.007 L19.006,59.65 L0,59.6506894 L0,59.3582841 L19.006,59.358 L19.006,50.001 L0,50.0013132 L0,49.7089079 L19.006,49.708 L19.006,40.351 L0,40.351937 L0,40.0595316 L19.006,40.059 L19.006,30.702 L0,30.7025607 L0,30.4101554 L19.006,30.41 L19.006,21.053 L0,21.0531845 L0,20.7607792 L19.006,20.76 L19.006,11.403 L0,11.4038083 L0,11.1114029 L19.006,11.111 L19.0063471,0 L19.2987525,0 Z M38.305,59.65 L19.298,59.65 L19.298,69.007 L38.305,69.007 L38.305,59.65 Z M57.603,59.65 L38.597,59.65 L38.597,69.007 L57.603,69.007 L57.603,59.65 Z M76.902,59.65 L57.896,59.65 L57.896,69.007 L76.902,69.007 L76.902,59.65 Z M38.305,50.001 L19.298,50.001 L19.298,59.358 L38.305,59.358 L38.305,50.001 Z M57.603,50.001 L38.597,50.001 L38.597,59.358 L57.603,59.358 L57.603,50.001 Z M76.902,50.001 L57.896,50.001 L57.896,59.358 L76.902,59.358 L76.902,50.001 Z M38.305,40.351 L19.298,40.351 L19.298,49.708 L38.305,49.708 L38.305,40.351 Z M57.603,40.351 L38.597,40.351 L38.597,49.708 L57.603,49.708 L57.603,40.351 Z M76.902,40.351 L57.896,40.351 L57.896,49.708 L76.902,49.708 L76.902,40.351 Z M38.305,30.702 L19.298,30.702 L19.298,40.059 L38.305,40.059 L38.305,30.702 Z M57.603,30.702 L38.597,30.702 L38.597,40.059 L57.603,40.059 L57.603,30.702 Z M76.902,30.702 L57.896,30.702 L57.896,40.059 L76.902,40.059 L76.902,30.702 Z M38.305,21.053 L19.298,21.053 L19.298,30.41 L38.305,30.41 L38.305,21.053 Z M57.603,21.053 L38.597,21.053 L38.597,30.41 L57.603,30.41 L57.603,21.053 Z M76.902,21.053 L57.896,21.053 L57.896,30.41 L76.902,30.41 L76.902,21.053 Z M38.305,11.403 L19.298,11.403 L19.298,20.76 L38.305,20.76 L38.305,11.403 Z M57.603,11.403 L38.597,11.403 L38.597,20.76 L57.603,20.76 L57.603,11.403 Z M76.902,11.403 L57.896,11.403 L57.896,20.76 L76.902,20.76 L76.902,11.403 Z" id="Combined-Shape" fill="#F2D1CF"></path>
                    <path d="M7.4094988,41.667761 L12.181659,41.667761 C13.2862285,41.667761 14.181659,42.5631915 14.181659,43.667761 L14.181659,62.4285402 L14.181659,62.4285402 L5.4094988,62.4285402 L5.4094988,43.667761 C5.4094988,42.5631915 6.3049293,41.667761 7.4094988,41.667761 Z" id="GREEN-TOP-WITH-OPACITY" fill="url(#linearGradient-1)"></path>
                    <polygon id="RED-BOTTOM" fill="url(#linearGradient-2)" points="5.4094988 53.483032 14.181659 46.1181416 14.181659 64.1829722 5.4094988 64.1829722"></polygon>
                    <path d="M25.8310352,18.5677391 L30.6031954,18.5677391 C31.7077649,18.5677391 32.6031954,19.4631696 32.6031954,20.5677391 L32.6031954,39.3285183 L32.6031954,39.3285183 L23.8310352,39.3285183 L23.8310352,20.5677391 C23.8310352,19.4631696 24.7264657,18.5677391 25.8310352,18.5677391 Z" id="GREEN-TOP-WITH-OPACITY" fill="url(#linearGradient-1)"></path>
                    <path d="M62.6741081,18.8601445 L67.4462683,18.8601445 C68.5508378,18.8601445 69.4462683,19.755575 69.4462683,20.8601445 L69.4462683,55.1184067 L69.4462683,55.1184067 L60.6741081,55.1184067 L60.6741081,20.8601445 C60.6741081,19.755575 61.5695386,18.8601445 62.6741081,18.8601445 Z" id="GREEN-TOP-WITH-OPACITY-Copy" fill="url(#linearGradient-3)"></path>
                    <path d="M82.5576713,18.8601445 L87.3298315,18.8601445 C88.434401,18.8601445 89.3298315,19.755575 89.3298315,20.8601445 L89.3298315,55.1184067 L89.3298315,55.1184067 L80.5576713,55.1184067 L80.5576713,20.8601445 C80.5576713,19.755575 81.4531018,18.8601445 82.5576713,18.8601445 Z" id="GREEN-TOP-WITH-OPACITY-Copy-3" fill="url(#linearGradient-3)"></path>
                    <polygon id="RED-BOTTOM" fill="#DEE0DA" points="23.8310352 38.7437076 32.6031954 38.7437076 32.6031954 59.2120814 23.8310352 59.2120814"></polygon>
                    <polygon id="RED-BOTTOM-Copy" fill="url(#linearGradient-4)" points="60.6741081 40.2057343 69.4462683 40.2057343 69.4462683 55.7032173 60.6741081 55.7032173"></polygon>
                    <polygon id="RED-BOTTOM-Copy-3" fill="url(#linearGradient-5)" points="80.5576713 34.0652221 89.3298315 34.0652221 89.3298315 62.1361348 80.5576713 62.1361348"></polygon>
                    <path d="M44.544977,41.667761 L49.3171372,41.667761 C50.4217067,41.667761 51.3171372,42.5631915 51.3171372,43.667761 L51.3171372,55.7032173 L51.3171372,55.7032173 L42.544977,55.7032173 L42.544977,43.667761 C42.544977,42.5631915 43.4404075,41.667761 44.544977,41.667761 Z" id="GREEN-TOP-WITH-OPACITY" fill="url(#linearGradient-6)"></path>
                    <polygon id="RED-BOTTOM" fill="#DEE0DA" points="42.544977 51.6095426 51.3171372 51.6095426 51.3171372 66.8146203 42.544977 66.8146203"></polygon>
                    <path d="M73.5576853,36.8268229 C77.6089528,33.9024204 82.6403299,32.678475 87.5776012,33.4108701 L87.7724421,33.4407972 L96.0335619,34.7531756 L95.8041779,36.1970956 L87.543058,34.8847172 C82.9893017,34.1612981 78.3357503,35.244684 74.5719008,37.8991718 L74.4133972,38.0122676 C71.8474645,39.864483 68.7978247,40.837088 65.2839522,40.9320013 L65.072563,40.9366429 C62.8466463,40.9743291 60.4033497,42.2981356 57.7643451,44.9379203 L57.5238971,45.1815269 L57.2823744,45.432389 C56.8385998,45.8989568 56.3894254,46.4021298 55.9349516,46.9420463 L55.6865317,47.240191 C55.5620596,47.3910862 55.4371947,47.5447162 55.311939,47.7010839 L55.0609072,48.0174703 C55.0189819,48.07081 54.9770134,48.1244541 54.9350016,48.1784027 L54.6824134,48.5057491 C54.6402292,48.5609161 54.5980019,48.6163878 54.5557317,48.6721643 C53.4720272,50.102167 52.0204446,51.2111575 50.35584,51.8808343 C45.3283834,53.9033992 39.620089,51.5120383 37.52411,46.5365987 L37.4617056,46.3850387 C36.9272978,45.05667 36.1537081,43.8376214 35.1793555,42.7884349 C30.7801553,38.0513596 23.3737429,37.7774604 18.6366775,42.1766672 L17.9394773,42.8220296 L17.4831073,43.242098 L16.8111948,43.8569427 L15.9389039,44.6482581 L15.5128668,45.0317129 L14.8864431,45.5916437 L14.4772468,45.9547644 L14.0747847,46.3097529 L13.4837154,46.8269892 L12.9077911,47.3259323 L12.5322534,47.6483993 L12.1634437,47.962738 L11.8013608,48.268949 L11.2708465,48.7130278 L10.7554606,49.1388239 L10.4202727,49.412532 L9.79349538,49.9186758 L9.19646929,50.3970327 L8.76254883,50.7422698 L8.20232912,51.1846006 L7.79583509,51.5028977 L7.14419043,52.0078584 L6.76860411,52.2955618 L6.28565367,52.6614084 L5.9367294,52.9225127 L5.48909056,53.2530001 L5.16647164,53.4876645 L4.75366879,53.7830047 L4.4569985,53.9913884 L4.26533994,54.1240788 L3.98698601,54.3137879 L3.71953452,54.4923313 L3.46291998,54.6597381 L3.21707685,54.8160375 L3.05913319,54.9140809 L2.9059283,55.0072093 L2.75744276,55.0954314 L2.61365716,55.1787559 L2.47455209,55.2571914 L2.34010813,55.3307467 L2.21030587,55.3994303 L2.08512589,55.4632509 L1.9645488,55.5222171 L1.84855517,55.5763377 L1.73712558,55.6256213 L1.63024064,55.6700766 L1.52788092,55.7097122 L1.43002701,55.7445367 L1.3366595,55.7745589 C1.30628257,55.7837668 1.27665014,55.7921758 1.24775897,55.7997873 L1.16330602,55.8202307 C1.14960008,55.8232397 1.13607865,55.8260496 1.12274132,55.8286607 L1.04492333,55.8419428 L0.836347378,54.3948705 C0.862062003,54.3911641 0.889860001,54.3855715 0.919730108,54.3780978 L0.982229794,54.3606438 C0.993105765,54.3573172 1.00421114,54.3537821 1.01554549,54.3500384 L1.08629606,54.3250766 L1.16252219,54.2951208 L1.24420385,54.2601799 L1.33132102,54.2202629 L1.42385367,54.1753786 L1.52178177,54.1255361 L1.6250853,54.0707443 L1.79007573,53.9792961 L1.96704822,53.8767621 L2.1559352,53.7631725 L2.35666908,53.6385574 L2.56918227,53.502947 L2.71736841,53.4064464 L2.94936359,53.2525774 L3.27672183,53.0304453 L3.5356764,52.8511551 L3.89873517,52.5952373 L4.28197397,52.3201117 L4.68523258,52.0258498 L5.1083508,51.712523 L5.66493209,51.2941635 L6.13214868,50.938202 L6.61870421,50.5634079 L7.38444758,49.966062 L8.19280241,49.3267446 L8.75511166,48.8773346 L9.33595882,48.4094493 L9.81839538,48.0165098 L10.1481154,47.7448236 L10.4843107,47.4653573 L10.82698,47.1781113 L11.3531204,46.7326574 L11.8938209,46.2697035 L12.262375,45.9513466 L12.8273339,45.4592316 L13.2120567,45.1214362 L13.8012633,44.6001668 L14.4050133,44.0614081 L15.0233029,43.5051625 L15.6561282,42.9314324 L16.3034854,42.3402202 L16.9653705,41.7315284 L17.6417797,41.1053594 C22.9705116,36.1566851 31.3019971,36.4647948 36.2506642,41.7935381 C37.2990604,42.9224551 38.1408294,44.2261959 38.7381491,45.6451593 L38.8180831,45.8393629 C40.5597095,50.1684952 45.4810318,52.2660832 49.8101641,50.5244568 C51.2292156,49.953567 52.4666669,49.0081701 53.390511,47.7891112 C53.6080526,47.5020602 53.8248544,47.2223653 54.0409249,46.9500385 L54.299859,46.6267837 C54.6446379,46.2004947 54.9875534,45.7930799 55.3286406,45.4045874 L55.5841138,45.1167668 C55.6266357,45.0693882 55.6691292,45.0223056 55.7115943,44.9755188 L55.9660452,44.6983505 L56.2198187,44.4282894 C56.811169,43.8064421 57.3970141,43.242674 57.9775418,42.737244 L58.2260143,42.5242036 C60.5420632,40.5691767 62.7734624,39.5481505 64.9322344,39.4776909 L65.0478135,39.4748257 C68.292,39.4198995 71.072645,38.5718317 73.4091497,36.9325335 L73.5576853,36.8268229 Z" id="Path-14" fill="#9BE5FF" fill-rule="nonzero"></path>
                </g>
                <ellipse id="Oval-Copy" fill="#8C8C8C" filter="url(#filter-7)" cx="101.875" cy="99.75" rx="37.875" ry="1"></ellipse>
                <path d="M148,3.5 L56,3.5 C54.6192881,3.5 53.5,4.61928813 53.5,6 L53.5,82 C53.5,83.3807119 54.6192881,84.5 56,84.5 L148,84.5 C149.380712,84.5 150.5,83.3807119 150.5,82 L150.5,6 C150.5,4.61928813 149.380712,3.5 148,3.5 Z M148,4 C149.104569,4 150,4.8954305 150,6 L150,82 C150,83.1045695 149.104569,84 148,84 L56,84 C54.8954305,84 54,83.1045695 54,82 L54,6 C54,4.8954305 54.8954305,4 56,4 L148,4 Z" id="Rectangle" fill="#F2D1CF" fill-rule="nonzero"></path>
            </g>
        </g>
    </g>
</svg>

<?xml version="1.0" encoding="UTF-8"?>
<svg version="1.1" viewBox="0 0 204 115" xmlns="http://www.w3.org/2000/svg">
<defs>
<linearGradient id="a" x1="50%" x2="50%" y1="80.492%" y2="-51.904%">
<stop stop-color="#56C491" offset="0"/>
<stop stop-color="#F3FFD4" offset="1"/>
</linearGradient>
<linearGradient id="c" x1="50%" x2="50%" y1="80.492%" y2="-51.904%">
<stop stop-color="#DCDCDC" offset="0"/>
<stop stop-color="#F3FFD4" offset="1"/>
</linearGradient>
<linearGradient id="b" x1="50%" x2="50%" y1="80.492%" y2="-115.63%">
<stop stop-color="#DEE0DA" offset="0"/>
<stop stop-color="#DEE0DA" offset="1"/>
</linearGradient>
<filter id="d" x="-18.5%" y="-933.1%" width="137%" height="1966.2%">
<feGaussianBlur in="SourceGraphic" stdDeviation="4.66560025"/>
</filter>
</defs>
<g fill="none" fill-rule="evenodd">
<g transform="translate(-954 -354)">
<g transform="translate(954 354)">
<rect width="204" height="108" fill="#D8D8D8" fill-opacity="0"/>
<g transform="translate(54 4)">
<path d="m19.299 0-7.525e-4 11.111h19.007l9.96e-5 -11.111h0.29241l-5.049e-4 11.111h19.006l8.52e-4 -11.111h0.29241l-2.574e-4 11.111h19.006l6.045e-4 -11.111h0.29241l-9.8e-6 11.111 19.006 4.029e-4v0.29241l-19.006-8.083e-4v9.357l19.006 7.792e-4v0.29241l-19.006-1.845e-4v9.357l19.006 1.554e-4v0.29241l-19.006-5.607e-4v9.357l19.006 5.316e-4v0.29241l-19.006-9.37e-4v9.357l19.006 9.079e-4v0.29241l-19.006-3.132e-4v9.357l19.006 2.841e-4v0.29241l-19.006-6.894e-4v9.357l19.006 6.603e-4v0.29241l-19.006-6.57e-5 9.8e-6 10.819h-0.29241l-6.045e-4 -10.819h-19.006l2.574e-4 10.819h-0.29241l-8.52e-4 -10.819h-19.006l5.049e-4 10.819h-0.29241l-9.96e-5 -10.819h-19.007l7.525e-4 10.819h-0.29241l-3.471e-4 -10.819-19.006 6.57e-5v-0.29241l19.006-6.603e-4v-9.357l-19.006 6.894e-4v-0.29241l19.006-2.841e-4v-9.357l-19.006 3.132e-4v-0.29241l19.006-9.079e-4v-9.357l-19.006 9.37e-4v-0.29241l19.006-5.316e-4v-9.357l-19.006 5.607e-4v-0.29241l19.006-1.554e-4v-9.357l-19.006 1.845e-4v-0.29241l19.006-7.792e-4v-9.357l-19.006 8.083e-4v-0.29241l19.006-4.029e-4 3.471e-4 -11.111h0.29241zm19.006 59.65h-19.007v9.357h19.007v-9.357zm19.298 0h-19.006v9.357h19.006v-9.357zm19.299 0h-19.006v9.357h19.006v-9.357zm-38.597-9.649h-19.007v9.357h19.007v-9.357zm19.298 0h-19.006v9.357h19.006v-9.357zm19.299 0h-19.006v9.357h19.006v-9.357zm-38.597-9.65h-19.007v9.357h19.007v-9.357zm19.298 0h-19.006v9.357h19.006v-9.357zm19.299 0h-19.006v9.357h19.006v-9.357zm-38.597-9.649h-19.007v9.357h19.007v-9.357zm19.298 0h-19.006v9.357h19.006v-9.357zm19.299 0h-19.006v9.357h19.006v-9.357zm-38.597-9.649h-19.007v9.357h19.007v-9.357zm19.298 0h-19.006v9.357h19.006v-9.357zm19.299 0h-19.006v9.357h19.006v-9.357zm-38.597-9.65h-19.007v9.357h19.007v-9.357zm19.298 0h-19.006v9.357h19.006v-9.357zm19.299 0h-19.006v9.357h19.006v-9.357z" fill="#F2D1CF"/>
<path id="GREEN-TOP-WITH-OPACITY" d="m7.4095 41.668h4.7722c1.1046 0 2 0.89543 2 2v18.761h-8.7722v-18.761c0-1.1046 0.89543-2 2-2z" fill="url(#a)"/>
<polygon id="RED-BOTTOM" points="5.4095 53.483 14.182 46.118 14.182 64.183 5.4095 64.183" fill="url(#c)"/>
<path id="e" d="m25.831 18.568h4.7722c1.1046 0 2 0.89543 2 2v18.761h-8.7722v-18.761c0-1.1046 0.89543-2 2-2z" fill="url(#a)"/>
<path d="m62.674 18.86h4.7722c1.1046 0 2 0.89543 2 2v34.258h-8.7722v-34.258c0-1.1046 0.89543-2 2-2z" fill="url(#a)"/>
<path d="m82.558 18.86h4.7722c1.1046 0 2 0.89543 2 2v34.258h-8.7722v-34.258c0-1.1046 0.89543-2 2-2z" fill="url(#a)"/>
<polygon id="f" points="23.831 38.744 32.603 38.744 32.603 59.212 23.831 59.212" fill="#DEE0DA"/>
<polygon points="60.674 40.206 69.446 40.206 69.446 55.703 60.674 55.703" fill="url(#b)"/>
<polygon points="80.558 34.065 89.33 34.065 89.33 62.136 80.558 62.136" fill="url(#b)"/>
<path d="m44.545 41.668h4.7722c1.1046 0 2 0.89543 2 2v12.035h-8.7722v-12.035c0-1.1046 0.89543-2 2-2z" fill="url(#a)"/>
<polygon points="42.545 51.61 51.317 51.61 51.317 66.815 42.545 66.815" fill="#DEE0DA"/>
<path d="m73.558 36.827c4.0513-2.9244 9.0826-4.1483 14.02-3.416l0.19484 0.029927 8.2611 1.3124-0.22938 1.4439-8.2611-1.3124c-4.5538-0.72342-9.2073 0.35997-12.971 3.0145l-0.1585 0.1131c-2.5659 1.8522-5.6156 2.8248-9.1294 2.9197l-0.21139 0.0046416c-2.2259 0.037686-4.6692 1.3615-7.3082 4.0013l-0.24045 0.24361-0.24152 0.25086c-0.44377 0.46657-0.89295 0.96974-1.3474 1.5097l-0.24842 0.29814c-0.12447 0.1509-0.24934 0.30453-0.37459 0.46089l-0.25103 0.31639c-0.041925 0.05334-0.083894 0.10698-0.12591 0.16093l-0.25259 0.32735c-0.042184 0.055167-0.084412 0.11064-0.12668 0.16642-1.0837 1.43-2.5353 2.539-4.1999 3.2087-5.0275 2.0226-10.736-0.3688-12.832-5.3442l-0.062404-0.15156c-0.53441-1.3284-1.308-2.5474-2.2824-3.5966-4.3992-4.7371-11.806-5.011-16.543-0.61177l-0.6972 0.64536-0.45637 0.42007-0.67191 0.61484-0.87229 0.79132-0.42604 0.38345-0.62642 0.55993-0.4092 0.36312-0.40246 0.35499-0.59107 0.51724-0.57592 0.49894-0.37554 0.32247-0.36881 0.31434-0.36208 0.30621-0.53051 0.44408-0.51539 0.4258-0.33519 0.27371-0.62678 0.50614-0.59703 0.47836-0.43392 0.34524-0.56022 0.44233-0.40649 0.3183-0.65164 0.50496-0.37559 0.2877-0.48295 0.36585-0.34892 0.2611-0.44764 0.33049-0.32262 0.23466-0.4128 0.29534-0.29667 0.20838-0.19166 0.13269-0.27835 0.18971-0.26745 0.17854-0.25661 0.16741-0.24584 0.1563-0.15794 0.098043-0.1532 0.093128-0.14849 0.088222-0.14379 0.083324-0.13911 0.078436-0.13444 0.073555-0.1298 0.068684-0.12518 0.063821-0.12058 0.058966-0.11599 0.054121-0.11143 0.049284-0.10688 0.044455-0.10236 0.039636-0.097854 0.034824-0.093368 0.030022c-0.030377 0.0092079-0.060009 0.017617-0.088901 0.025228l-0.084453 0.020443c-0.013706 0.003009-0.027227 0.0058189-0.040565 0.00843l-0.077818 0.013282-0.20858-1.4471c0.025715-0.0037064 0.053513-0.009299 0.083383-0.016773l0.0625-0.017454c0.010876-0.0033266 0.021981-0.0068617 0.033316-0.010605l0.070751-0.024962 0.076226-0.029956 0.081682-0.034941 0.087117-0.039917 0.092533-0.044884 0.097928-0.049842 0.1033-0.054792 0.16499-0.091448 0.17697-0.10253 0.18889-0.11359 0.20073-0.12462 0.21251-0.13561 0.14819-0.096501 0.232-0.15387 0.32736-0.22213 0.25895-0.17929 0.36306-0.25592 0.38324-0.27513 0.40326-0.29426 0.42312-0.31333 0.55658-0.41836 0.46722-0.35596 0.48656-0.37479 0.76574-0.59735 0.80835-0.63932 0.56231-0.44941 0.58085-0.46789 0.48244-0.39294 0.32972-0.27169 0.3362-0.27947 0.34267-0.28725 0.52614-0.44545 0.5407-0.46295 0.36855-0.31836 0.56496-0.49212 0.38472-0.3378 0.58921-0.52127 0.60375-0.53876 0.61829-0.55625 0.63283-0.57373 0.64736-0.59121 0.66189-0.60869 0.67641-0.62617c5.3287-4.9487 13.66-4.6406 18.609 0.68818 1.0484 1.1289 1.8902 2.4327 2.4875 3.8516l0.079934 0.1942c1.7416 4.3291 6.6629 6.4267 10.992 4.6851 1.4191-0.57089 2.6565-1.5163 3.5803-2.7353 0.21754-0.28705 0.43434-0.56675 0.65041-0.83907l0.25893-0.32325c0.34478-0.42629 0.68769-0.8337 1.0288-1.2222l0.25547-0.28782c0.042522-0.047379 0.085015-0.094461 0.12748-0.14125l0.25445-0.27717 0.25377-0.27006c0.59135-0.62185 1.1772-1.1856 1.7577-1.691l0.24847-0.21304c2.316-1.955 4.5474-2.9761 6.7062-3.0465l0.11558-0.0028652c3.2442-0.054926 6.0248-0.90299 8.3613-2.5423l0.14854-0.10571z" fill="#9BE5FF" fill-rule="nonzero"/>
</g>
<ellipse cx="101.88" cy="99.75" rx="37.875" ry="1" fill="#8C8C8C" filter="url(#d)"/>
<path d="m148 3.5h-92c-1.3807 0-2.5 1.1193-2.5 2.5v76c0 1.3807 1.1193 2.5 2.5 2.5h92c1.3807 0 2.5-1.1193 2.5-2.5v-76c0-1.3807-1.1193-2.5-2.5-2.5zm0 0.5c1.1046 0 2 0.89543 2 2v76c0 1.1046-0.89543 2-2 2h-92c-1.1046 0-2-0.89543-2-2v-76c0-1.1046 0.89543-2 2-2h92z" fill="#F2D1CF" fill-rule="nonzero"/>
</g>
</g>
</g>
</svg>
